Newaita-dark/apps/64/Zoom.svg

<svg height="64pt" viewBox="0 0 64 64" width="64pt" xmlns="http://www.w3.org/2000/svg" xmlns:xlink="http://www.w3.org/1999/xlink"><linearGradient id="a"><stop offset="0" stop-opacity=".313726"/><stop offset=".222222" stop-opacity=".27451"/><stop offset="1" stop-opacity="0"/></linearGradient><radialGradient id="b" cx="450.908936" cy="189.579361" gradientTransform="matrix(.00000035 -.156265 -.281277 -.0000002 90.369347 119.913925)" gradientUnits="userSpaceOnUse" r="21.166656" xlink:href="#a"/><radialGradient id="c" cx="450.908936" cy="189.579361" gradientTransform="matrix(-.00000035 .156265 .281277 .0000002 -38.770662 -22.331698)" gradientUnits="userSpaceOnUse" r="21.166656" xlink:href="#a"/><radialGradient id="d" cx="450.908936" cy="189.579361" gradientTransform="matrix(-.00000035 -.156265 .281277 -.0000002 -38.770662 119.913925)" gradientUnits="userSpaceOnUse" r="21.166656" xlink:href="#a"/><radialGradient id="e" cx="450.908936" cy="189.579361" gradientTransform="matrix(.00000035 .156265 -.281277 .0000002 90.369343 -22.331699)" gradientUnits="userSpaceOnUse" r="21.166656" xlink:href="#a"/><linearGradient id="f" gradientTransform="matrix(.0687088 0 0 .125012 8.256385 19.600833)" gradientUnits="userSpaceOnUse" x1="255.323059" x2="255.323044" y1="233.5" y2="254.666656"><stop offset="0" stop-opacity=".27451"/><stop offset="1" stop-opacity="0"/></linearGradient><linearGradient id="g"><stop offset="0" stop-color="#bdbdbd"/><stop offset="1" stop-color="#e0e0e0"/></linearGradient><linearGradient id="h" gradientUnits="userSpaceOnUse" x1="23.814786" x2="23.814786" xlink:href="#g" y1="48.129606" y2="13.73047200013"/><linearGradient id="i" gradientUnits="userSpaceOnUse" x1="52.92174800013" x2="52.92174800013" xlink:href="#g" y1="48.129606" y2="13.73046912485"/><path d="m37.707031 48.792969h5.292969v-2.648438h-5.292969zm0 0" fill="url(#b)"/><path d="m13.890625 48.792969h-5.289063v2.644531h5.289063zm0 0" fill="url(#c)"/><path d="m13.890625 48.792969h-5.289063v-2.648438h5.289063zm0 0" fill="url(#d)"/><path d="m37.707031 48.792969h5.292969v2.644531h-5.292969zm0 0" fill="url(#e)"/><path d="m13.890625 48.128906h23.816406v3.308594h-23.816406zm0 0" fill="url(#f)"/><path d="m7.9375 13.730469c-1.464844 0-2.644531 1.179687-2.644531 2.644531v23.816406c0 4.398438 3.539062 7.9375 7.9375 7.9375h26.460937c1.464844 0 2.644532-1.179687 2.644532-2.644531v-23.816406c0-4.398438-3.539063-7.9375-7.9375-7.9375zm0 0" fill="url(#h)"/><path d="m58.816406 16.363281c-.277344.011719-.546875.074219-.796875.191407l-12.566406 5.957031c-.699219.328125-1.144531 1.03125-1.144531 1.804687v13.230469c0 .769531.445312 1.472656 1.144531 1.804687l12.566406 5.953126c1.324219.625 2.851563-.339844 2.851563-1.804688v-25.140625c0-1.125-.929688-2.027344-2.054688-1.996094zm0 0" fill="url(#i)"/><path d="m7.9375 13.730469c-1.464844 0-2.644531 1.179687-2.644531 2.644531v1.003906c0-1.464844 1.179687-2.644531 2.644531-2.644531h26.460938c4.398437 0 7.9375 3.539063 7.9375 7.9375v-1.003906c0-4.398438-3.539063-7.9375-7.9375-7.9375zm0 0" fill="#efefef"/><path d="m58.921875 16.363281c-.035156 0-.070313 0-.105469 0-.277344.011719-.546875.074219-.796875.191407l-12.566406 5.957031c-.699219.328125-1.144531 1.03125-1.144531 1.804687v1.003906c0-.773437.445312-1.476562 1.144531-1.804687l12.566406-5.957031c.25-.117188.519531-.179688.796875-.1875.035156-.003906.070313-.003906.105469-.003906 1.078125.027343 1.949219.90625 1.949219 1.996093v-1.003906c0-1.089844-.871094-1.96875-1.949219-1.996094zm0 0" fill="#efefef"/><path d="m5.292969 39.242188v.949218c0 4.398438 3.539062 7.9375 7.9375 7.9375h26.460937c1.464844 0 2.644532-1.179687 2.644532-2.644531v-.949219c0 1.464844-1.179688 2.644532-2.644532 2.644532h-26.460937c-4.398438 0-7.9375-3.539063-7.9375-7.9375zm0 0" fill-opacity=".235294"/><path d="m44.308594 36.542969v1.003906c0 .769531.445312 1.472656 1.144531 1.804687l12.566406 5.953126c1.324219.625 2.851563-.339844 2.851563-1.804688v-1.003906c0 1.464844-1.527344 2.429687-2.851563 1.804687l-12.566406-5.953125c-.699219-.332031-1.144531-1.035156-1.144531-1.804687zm0 0" fill-opacity=".235294"/><path d="m7.9375 13.542969c-1.566406 0-2.832031 1.265625-2.832031 2.832031v23.816406c0 4.5 3.625 8.125 8.125 8.125h26.460937c1.566406 0 2.832032-1.265625 2.832032-2.832031v-23.816406c0-4.496094-3.625-8.125-8.125-8.125zm0 .375h26.460938c4.296874 0 7.75 3.453125 7.75 7.75v23.816406c0 1.363281-1.09375 2.457031-2.457032 2.457031h-26.460937c-4.296875 0-7.75-3.453125-7.75-7.75v-23.816406c0-1.363281 1.09375-2.457031 2.457031-2.457031zm50.988281 2.257812c-.039062 0-.078125 0-.113281 0-.304688.011719-.597656.082031-.871094.210938l-12.570312 5.953125c-.761719.363281-1.25 1.132812-1.25 1.976562v13.230469c0 .84375.488281 1.613281 1.25 1.972656l12.570312 5.953125c1.441406.683594 3.117188-.378906 3.117188-1.972656v-25.140625c0-1.1875-.957032-2.15625-2.132813-2.183594zm-.007812.375c.976562.023438 1.765625.820313 1.765625 1.808594v25.140625c0 1.335938-1.375 2.207031-2.582032 1.632812l-12.570312-5.953124c-.632812-.296876-1.035156-.933594-1.035156-1.632813v-13.230469c0-.703125.402344-1.335937 1.035156-1.636718l12.570312-5.953126c.226563-.109374.46875-.167968.71875-.175781zm0 0" fill="#212121"/></svg>

<?xml version="1.0" encoding="UTF-8"?>
<svg xmlns="http://www.w3.org/2000/svg" xmlns:xlink="http://www.w3.org/1999/xlink" width="64pt" height="64pt" viewBox="0 0 64 64" version="1.1">
<defs>
<radialGradient id="radial0" gradientUnits="userSpaceOnUse" cx="450.908936" cy="189.579361" fx="450.908936" fy="189.579361" r="21.166656" gradientTransform="matrix(0.000000348341,-0.156265,-0.281277,-0.000000203077,90.369347,119.913925)">
<stop offset="0" style="stop-color:rgb(0%,0%,0%);stop-opacity:0.313726;"/>
<stop offset="0.222222" style="stop-color:rgb(0%,0%,0%);stop-opacity:0.27451;"/>
<stop offset="1" style="stop-color:rgb(0%,0%,0%);stop-opacity:0;"/>
</radialGradient>
<radialGradient id="radial1" gradientUnits="userSpaceOnUse" cx="450.908936" cy="189.579361" fx="450.908936" fy="189.579361" r="21.166656" gradientTransform="matrix(-0.000000348341,0.156265,0.281277,0.000000203077,-38.770662,-22.331698)">
<stop offset="0" style="stop-color:rgb(0%,0%,0%);stop-opacity:0.313726;"/>
<stop offset="0.222222" style="stop-color:rgb(0%,0%,0%);stop-opacity:0.27451;"/>
<stop offset="1" style="stop-color:rgb(0%,0%,0%);stop-opacity:0;"/>
</radialGradient>
<radialGradient id="radial2" gradientUnits="userSpaceOnUse" cx="450.908936" cy="189.579361" fx="450.908936" fy="189.579361" r="21.166656" gradientTransform="matrix(-0.000000348341,-0.156265,0.281277,-0.000000203077,-38.770662,119.913925)">
<stop offset="0" style="stop-color:rgb(0%,0%,0%);stop-opacity:0.313726;"/>
<stop offset="0.222222" style="stop-color:rgb(0%,0%,0%);stop-opacity:0.27451;"/>
<stop offset="1" style="stop-color:rgb(0%,0%,0%);stop-opacity:0;"/>
</radialGradient>
<radialGradient id="radial3" gradientUnits="userSpaceOnUse" cx="450.908936" cy="189.579361" fx="450.908936" fy="189.579361" r="21.166656" gradientTransform="matrix(0.000000348341,0.156265,-0.281277,0.000000203077,90.369343,-22.331699)">
<stop offset="0" style="stop-color:rgb(0%,0%,0%);stop-opacity:0.313726;"/>
<stop offset="0.222222" style="stop-color:rgb(0%,0%,0%);stop-opacity:0.27451;"/>
<stop offset="1" style="stop-color:rgb(0%,0%,0%);stop-opacity:0;"/>
</radialGradient>
<linearGradient id="linear0" gradientUnits="userSpaceOnUse" x1="255.323059" y1="233.5" x2="255.323044" y2="254.666656" gradientTransform="matrix(0.0687088,0,0,0.125012,8.256385,19.600833)">
<stop offset="0" style="stop-color:rgb(0%,0%,0%);stop-opacity:0.27451;"/>
<stop offset="1" style="stop-color:rgb(0%,0%,0%);stop-opacity:0;"/>
</linearGradient>
<linearGradient id="linear1" gradientUnits="userSpaceOnUse" x1="190.5" y1="170" x2="190.5" y2="-105.166656" gradientTransform="matrix(0.125012,0,0,0.125012,0,26.877566)">
<stop offset="0" style="stop-color:rgb(74.117649%,74.117649%,74.117649%);stop-opacity:1;"/>
<stop offset="1" style="stop-color:rgb(87.843138%,87.843138%,87.843138%);stop-opacity:1;"/>
</linearGradient>
<linearGradient id="linear2" gradientUnits="userSpaceOnUse" x1="423.333344" y1="170" x2="423.333344" y2="-105.166679" gradientTransform="matrix(0.125012,0,0,0.125012,0,26.877566)">
<stop offset="0" style="stop-color:rgb(74.117649%,74.117649%,74.117649%);stop-opacity:1;"/>
<stop offset="1" style="stop-color:rgb(87.843138%,87.843138%,87.843138%);stop-opacity:1;"/>
</linearGradient>
</defs>
<g id="surface1">
<path style=" stroke:none;fill-rule:nonzero;fill:url(#radial0);" d="M 37.707031 48.792969 L 43 48.792969 L 43 46.144531 L 37.707031 46.144531 Z M 37.707031 48.792969 "/>
<path style=" stroke:none;fill-rule:nonzero;fill:url(#radial1);" d="M 13.890625 48.792969 L 8.601562 48.792969 L 8.601562 51.4375 L 13.890625 51.4375 Z M 13.890625 48.792969 "/>
<path style=" stroke:none;fill-rule:nonzero;fill:url(#radial2);" d="M 13.890625 48.792969 L 8.601562 48.792969 L 8.601562 46.144531 L 13.890625 46.144531 Z M 13.890625 48.792969 "/>
<path style=" stroke:none;fill-rule:nonzero;fill:url(#radial3);" d="M 37.707031 48.792969 L 43 48.792969 L 43 51.4375 L 37.707031 51.4375 Z M 37.707031 48.792969 "/>
<path style=" stroke:none;fill-rule:nonzero;fill:url(#linear0);" d="M 13.890625 48.128906 L 37.707031 48.128906 L 37.707031 51.4375 L 13.890625 51.4375 Z M 13.890625 48.128906 "/>
<path style=" stroke:none;fill-rule:nonzero;fill:url(#linear1);" d="M 7.9375 13.730469 C 6.472656 13.730469 5.292969 14.910156 5.292969 16.375 L 5.292969 40.191406 C 5.292969 44.589844 8.832031 48.128906 13.230469 48.128906 L 39.691406 48.128906 C 41.15625 48.128906 42.335938 46.949219 42.335938 45.484375 L 42.335938 21.667969 C 42.335938 17.269531 38.796875 13.730469 34.398438 13.730469 Z M 7.9375 13.730469 "/>
<path style=" stroke:none;fill-rule:nonzero;fill:url(#linear2);" d="M 58.816406 16.363281 C 58.539062 16.375 58.269531 16.4375 58.019531 16.554688 L 45.453125 22.511719 C 44.753906 22.839844 44.308594 23.542969 44.308594 24.316406 L 44.308594 37.546875 C 44.308594 38.316406 44.753906 39.019531 45.453125 39.351562 L 58.019531 45.304688 C 59.34375 45.929688 60.871094 44.964844 60.871094 43.5 L 60.871094 18.359375 C 60.871094 17.234375 59.941406 16.332031 58.816406 16.363281 Z M 58.816406 16.363281 "/>
<path style=" stroke:none;fill-rule:nonzero;fill:rgb(93.725491%,93.725491%,93.725491%);fill-opacity:1;" d="M 7.9375 13.730469 C 6.472656 13.730469 5.292969 14.910156 5.292969 16.375 L 5.292969 17.378906 C 5.292969 15.914062 6.472656 14.734375 7.9375 14.734375 L 34.398438 14.734375 C 38.796875 14.734375 42.335938 18.273438 42.335938 22.671875 L 42.335938 21.667969 C 42.335938 17.269531 38.796875 13.730469 34.398438 13.730469 Z M 7.9375 13.730469 "/>
<path style=" stroke:none;fill-rule:nonzero;fill:rgb(93.725491%,93.725491%,93.725491%);fill-opacity:1;" d="M 58.921875 16.363281 C 58.886719 16.363281 58.851562 16.363281 58.816406 16.363281 C 58.539062 16.375 58.269531 16.4375 58.019531 16.554688 L 45.453125 22.511719 C 44.753906 22.839844 44.308594 23.542969 44.308594 24.316406 L 44.308594 25.320312 C 44.308594 24.546875 44.753906 23.84375 45.453125 23.515625 L 58.019531 17.558594 C 58.269531 17.441406 58.539062 17.378906 58.816406 17.371094 C 58.851562 17.367188 58.886719 17.367188 58.921875 17.367188 C 60 17.394531 60.871094 18.273438 60.871094 19.363281 L 60.871094 18.359375 C 60.871094 17.269531 60 16.390625 58.921875 16.363281 Z M 58.921875 16.363281 "/>
<path style=" stroke:none;fill-rule:nonzero;fill:rgb(0%,0%,0%);fill-opacity:0.235294;" d="M 5.292969 39.242188 L 5.292969 40.191406 C 5.292969 44.589844 8.832031 48.128906 13.230469 48.128906 L 39.691406 48.128906 C 41.15625 48.128906 42.335938 46.949219 42.335938 45.484375 L 42.335938 44.535156 C 42.335938 46 41.15625 47.179688 39.691406 47.179688 L 13.230469 47.179688 C 8.832031 47.179688 5.292969 43.640625 5.292969 39.242188 Z M 5.292969 39.242188 "/>
<path style=" stroke:none;fill-rule:nonzero;fill:rgb(0%,0%,0%);fill-opacity:0.235294;" d="M 44.308594 36.542969 L 44.308594 37.546875 C 44.308594 38.316406 44.753906 39.019531 45.453125 39.351562 L 58.019531 45.304688 C 59.34375 45.929688 60.871094 44.964844 60.871094 43.5 L 60.871094 42.496094 C 60.871094 43.960938 59.34375 44.925781 58.019531 44.300781 L 45.453125 38.347656 C 44.753906 38.015625 44.308594 37.3125 44.308594 36.542969 Z M 44.308594 36.542969 "/>
<path style=" stroke:none;fill-rule:nonzero;fill:rgb(12.941177%,12.941177%,12.941177%);fill-opacity:1;" d="M 7.9375 13.542969 C 6.371094 13.542969 5.105469 14.808594 5.105469 16.375 L 5.105469 40.191406 C 5.105469 44.691406 8.730469 48.316406 13.230469 48.316406 L 39.691406 48.316406 C 41.257812 48.316406 42.523438 47.050781 42.523438 45.484375 L 42.523438 21.667969 C 42.523438 17.171875 38.898438 13.542969 34.398438 13.542969 Z M 7.9375 13.917969 L 34.398438 13.917969 C 38.695312 13.917969 42.148438 17.371094 42.148438 21.667969 L 42.148438 45.484375 C 42.148438 46.847656 41.054688 47.941406 39.691406 47.941406 L 13.230469 47.941406 C 8.933594 47.941406 5.480469 44.488281 5.480469 40.191406 L 5.480469 16.375 C 5.480469 15.011719 6.574219 13.917969 7.9375 13.917969 Z M 58.925781 16.175781 C 58.886719 16.175781 58.847656 16.175781 58.8125 16.175781 C 58.507812 16.1875 58.214844 16.257812 57.941406 16.386719 L 45.371094 22.339844 C 44.609375 22.703125 44.121094 23.472656 44.121094 24.316406 L 44.121094 37.546875 C 44.121094 38.390625 44.609375 39.160156 45.371094 39.519531 L 57.941406 45.472656 C 59.382812 46.15625 61.058594 45.09375 61.058594 43.5 L 61.058594 18.359375 C 61.058594 17.171875 60.101562 16.203125 58.925781 16.175781 Z M 58.917969 16.550781 C 59.894531 16.574219 60.683594 17.371094 60.683594 18.359375 L 60.683594 43.5 C 60.683594 44.835938 59.308594 45.707031 58.101562 45.132812 L 45.53125 39.179688 C 44.898438 38.882812 44.496094 38.246094 44.496094 37.546875 L 44.496094 24.316406 C 44.496094 23.613281 44.898438 22.980469 45.53125 22.679688 L 58.101562 16.726562 C 58.328125 16.617188 58.570312 16.558594 58.820312 16.550781 C 58.855469 16.550781 58.886719 16.550781 58.917969 16.550781 Z M 58.917969 16.550781 "/>
</g>
</svg>
